X:1
T:Tu es Petrus - Clemens non Papa
T:James Gibb editions
T:#
%%score [ 1 2 3 4 ]
L:1/8
Q:1/4=200
M:none
K:D
V:1 treble nm="Alto" snm="A"
V:2 treble-8 nm="Tenor I" snm="T I"
V:3 treble-8 nm="Tenor II" snm="T II"
V:4 bass nm="Bass" snm="B"
V:1
 z16 | z8 A8 |"^Tu es Petrus" B8 A8 | A8 z4 A4- | A4 A4 G4 A4 | %5
w: |Tu|es Pe-|trus, et|* su- per hanc|
 (B8 A6"^Jacobus Clemens non Papa\n(1500-1558)" G2 | F4 E2 D2 E4 A4- | A2 G2 F8 E4) | F16 | z16 | %10
w: pe\- * *|||tram,||
 z8 z4 A4- | A4 A4 G4 A4 | (B4 A8 ^G4 | A4 F8 E4) | F4 d4 c4 B4- | B2 A2 (A8 ^G4 | A4 F4 E6 D2 | %17
w: et|* su- per hanc|pe\- * *||tram, et su- per|* hanc pe\- *||
 E4 F4) E8 | z16 | z16 | z16 | z8 z4 A4 | A4 A4 G4 F4 | A8 E4 G4 | F4 F4 E8- | E4 (F4 G4 A4) | %26
w: * * tram||||ae-|di- fi- ca- bo|Ec- cle- si-|am me- am,|* me\- * *|
 F8 z4 d4 | d4 d4 c4 B4 | d4 (c8 B4- | B4 A8) G4 | F4 (E8 D4- | D4 C4) D8- | D8 z8 | z4 A8 A4 | %34
w: am, ae-|di- fi- ca- bo|Ec- cle\- *|* * si-|am me\- *|* * am:||Et ti-|
 B4 c4 d8 | d12 d4 | d4 c4 B4 (A4- | A4 ^G4) A8 | z16 | z16 | z16 | d12 d4 | d4 c4 B4 (A4- | %43
w: bi da- bo|cla- ves|re- gni coe- lo\-|* * rum,||||cla- ves|re- gni coe- lo\-|
 A4 G4 F4 E4 | F4 G4 E8) | (F6 G2 A8) | z8 z4 A4- | A4 B4 G4 A4 | (F4 G4) (A6 GA | G2 F2 B8 A4- | %50
w: ||rum, * *|cla\-|* ves re- gni|coe\- * lo\- * *||
 A4 G8 F2 E2) | F8 z8 | z8 z4 A4 | B4 G4 A6 G2 | %54
w: |rum,|cla-|ves re- gni coe-|
[Q:1/4=197] (F4[Q:1/4=193] G4[Q:1/4=190] F4[Q:1/4=186] E4- | %55
w: lo\- * * *|
[Q:1/4=182] E4[Q:1/4=177] D8[Q:1/4=171] C4) |[Q:1/4=170] !fermata!D16 |] %57
w: |rum.|
V:2
 d8 e8 | d8 d8 | z4 d8 d4 | c4 d4 (B4 A4) | d8 B4 c4 | d4 e4 (f4 e4- | e4 d4- d2 B2 c4 | %7
w: Tu es|Pe- trus,|et su-|per hanc pe\- *|tram, et su-|per hanc pe\- *||
 F4 A4 G8) | F16 | z16 | z16 | z16 | z4 d8 d4 | c4 A4 (B8 | A6 B2 c2 d2 e4- | e4 d4 e8) | c16 | %17
w: |tram,||||et su-|per hanc pe\-|||tram|
 z8 z4 e4 | e4 e4 d4 c4 | e8 d4 c4 | B4 (A8 ^G4) | A4 =G4 (F4 f4- | f4) (e2 d2) e4 (f4- | %23
w: ae-|di- fi- ca- bo|Ec- cle- si-|am me\- *|am, Ec- cle\- *|* si\- * am me\-|
 f4 e2 d2 c2 d2 e4- | e4 d8 c2 B2 | c8 d8 | z16 | z4 A4 A4 G4 | (A6 B2 c2 d2 e4) | c4 d4 e6 d2 | %30
w: ||* am,||Ec- cle- si-|am * * * *|me\- * * *|
 c2 B2 c4 B8) | A16 | z16 | z4 d8 d4 | g4 e4 d4 g4- | g4 g4 g8 | f4 e4 (d4 c4 | B8) A4 F4- | %38
w: |am:||Et ti-|bi da- bo cla\-|* ves re-|gni coe- lo\- *|* rum, et|
 F4 F4 F4 G4 | A4 B8 B4 | B8 A4 G4 | F4 E4 z4 B4 | e12 e4 | e8 d4 c4- | c2 A2 (d8 c4) | d4 d8 e4 | %46
w: * ti- bi da-|bo cla- ves|re- gni coe-|lo- rum, et|ti- bi|da- bo, ti\-|* bi da\- *|bo cla- ves|
 c4 d4 (B4 c4) | (d4 B4- B2 AG) F4 | z4 e8 f4 | d4 g4 (e4 d4) | e8 (A8 | d8 z8 | z4 e8 f4 | %53
w: re- gni coe\- *|lo\- * * * * rum,|cla- ves|re- gni coe\- *|lo- rum,||cla- ves|
 d4 e4 (c4 d4) | B6 c2 d2 B2 c4 | B8 A8) | !fermata!A16 |] %57
w: re- gni coe\- *|lo\- * * * *||rum.|
V:3
 z16 | z16 | z16 | z16 | z16 | z8 A8 | B8 A8 | A8 z8 | z4 A8 A4 | G4 A4 (B4 A4- | A4 G2 F2 G4 A4 | %11
w: |||||Tu|es Pe-|trus,|et su-|per hanc pe\- *||
 D4 F4) E8 | z4 A4 B8 | A4 (d8 c2 B2 | c4 d4) (e6 d2 | c4 B2 A2 B8) | A8 z4 A4 | B4 d4 (c6 BA) | %18
w: * * tram,|et su-|per hanc * *|* * pe\- *||tram, et|su- per hanc * *|
 B8 A8 | z16 | d8 d4 d4 | c4 B4 d8 | A4 c4 B4 B4 | A8 z8 | z8 z4 A4 | A4 A4 G4 F4 | A8 E4 G4 | %27
w: pe- tram||ae- di- fi-|ca- bo Ec-|cle- si- am me-|am,|ae-|di- fi- ca- bo|Ec- cle- si-|
 F4 F4 E8 | z4 A4 A4 G4 | A8 (B8- | A6 G2 F4 G4 | E8) D4 A4- | A4 A4 B4 c4 | d8 z8 | z16 | z16 | %36
w: am me- am,|Ec- cle- si-|am me\-||* am: Et|* ti- bi da-|bo|||
 z16 | z8 z4 A4- | A4 A4 B4 c4 | d8 d8- | d4 d4 d4 c4 | B4 (A8 ^G4) | A4 E4 =G4 A4 | B8 A8 | z16 | %45
w: |et|* ti- bi da-|bo cla\-|* ves re- gni|coe- lo\- *|rum, re- gni coe-|lo- rum,||
 z8 z4 A4- | A4 B4 G4 A4 | (F4 G4) E4 D4 | z8 z4 d4- | d4 e4 c4 d4 | B4 c4 d4 A4- | A4 B4 G4 A4 | %52
w: cla\-|* ves re- gni|coe\- * lo- rum,|cla\-|* ves re- gni|coe- lo- rum, cla\-|* ves re- gni|
 F4 G4 A8 | z8 z4 A4 | B4 G4 A8 | (F4 G4) E8 | !fermata!D16 |] %57
w: coe- lo- rum,|cla-|ves re- gni|coe\- * lo-|rum.|
V:4
 z16 | z16 | z16 | z16 | z16 | z16 | z16 | D,8 E,8 | D,8 D,8 | z4 D,8 D,4 | C,4 D,4 (E,4 F,4- | %11
w: |||||||Tu es|Pe- trus,|et su-|per hanc pe\- *|
 F,2 E,2 D,8 C,4) | D,8 z8 | z4 D,4 G,8 | F,4 D,4 (A,4 E,4 | F,8 E,8) | A,,4 A,4 A,4 A,4 | %17
w: |tram,|et su-|per hanc pe\- *||tram ae- di- fi-|
 G,4 F,4 A,8 | E,4 G,4 F,4 F,4 | E,4 G,4 F,6 E,2 | (D,4 C,4 B,,8) | A,,4 E,4 (B,,2 C,2 D,2 E,2 | %22
w: ca- bo Ec-|cle- si- am me-|am, ae- di- fi-|ca\- * *|bo Ec- cle\- * * *|
 F,2 G,2 A,4 E,4 D,2 E,2 | F,2 G,2 A,6) G,2 E,4 | (F,4 D,4) A,8 | z8 z4 D,4 | D,4 D,4 C,4 B,,4 | %27
w: |* * * si- am|me\- * am,|ae-|di- fi- ca- bo|
 D,8 A,,4 E,4 | (D,2 E,2 F,2 G,2 A,4) E,4 | F,8 E,8 | A,,8 (B,,4 G,,4) | A,,8 z4 D,4- | %32
w: Ec- cle- si-|am, * * * * Ec-|cle- si-|am me\- *|am: Et|
 D,4 D,4 G,4 E,4 | D,16 | z16 | z16 | z16 | z8 z4 D,4- | D,4 D,4 D,4 E,4 | D,4 G,8 G,4 | %40
w: * ti- bi da-|bo||||et|* ti- bi da-|bo cla- ves|
 G,8 F,4 E,4 | (D,4 C,4 B,,8) | A,,8 z4 A,,4 | E,4 E,4 (F,4 A,4- | A,4 G,4 A,8) | D,8 z8 | z16 | %47
w: re- gni coe-|lo\- * *|rum, re-|gni coe- lo\- *||rum,||
 z8 z4 D,4- | D,4 E,4 C,4 D,4 | (G,6 F,G, A,4 F,4) | E,8 D,8- | D,8 z4 D,4- | D,4 E,4 C,4 D,4 | %53
w: cla\-|* ves re- gni|coe\- * * * *|lo- rum,|* cla\-|* ves re- gni|
 B,,4 =C,4 A,,4 D,4- | D,4 E,4 D,4 A,,4 | (B,,4 G,,4) A,,8 | !fermata!D,16 |] %57
w: coe- lo- rum, cla\-|* ves re- gni|coe\- * lo-|rum.|

